resources/haticons/SVG/blogger1.svg

<!-- Generated by IcoMoon.io -->
<svg version="1.1" xmlns="http://www.w3.org/2000/svg" width="24" height="24" viewBox="0 0 24 24">
<title>blogger1</title>
<path fill="#ff5722" d="M21.976 24h-19.95c-1.126 0-2.026-0.9-2.026-2.024v-19.95c0-1.126 0.9-2.026 2.025-2.026h20.025c1.050 0 1.95 0.9 1.95 2.025v19.95c0 1.125-0.9 2.025-2.024 2.025zM12 3.975h-3c-2.775 0-5.025 2.25-5.025 5.025v6c0 2.774 2.25 5.024 5.025 5.024h6c2.774 0 5.024-2.25 5.024-5.024v-3.975c0-0.6-0.45-1.050-1.050-1.050h-0.974c-0.524 0-0.976-0.45-0.976-0.976 0-2.776-2.25-5.026-5.024-5.024zM15.074 15.975h-6.074c-0.525 0-0.975-0.45-0.975-0.975s0.45-0.976 0.975-0.976h6.074c0.526 0 0.977 0.45 0.977 0.976s-0.45 0.976-0.977 0.975zM12.524 8.025c0.527 0 0.976 0.45 0.976 0.975s-0.45 0.975-0.975 0.975h-3.6c-0.525 0-0.976-0.45-0.976-0.975s0.45-0.975 0.975-0.975z"></path>
</svg>

<svg xmlns="http://www.w3.org/2000/svg" width="24" height="24"><path fill="#ff5722" d="M21.976 24H2.026C.9 24 0 23.1 0 21.976V2.026C0 .9.9 0 2.025 0H22.05C23.1 0 24 .9 24 2.025v19.95C24 23.1 23.1 24 21.976 24zM12 3.975H9A5.025 5.025 0 0 0 3.975 9v6A5.025 5.025 0 0 0 9 20.024h6A5.025 5.025 0 0 0 20.024 15v-3.975c0-.6-.45-1.05-1.05-1.05H18a.995.995 0 0 1-.976-.976A5.022 5.022 0 0 0 12 3.975zm3.074 12H9c-.525 0-.975-.45-.975-.975s.45-.976.975-.976h6.074c.526 0 .977.45.977.976s-.45.976-.977.975zm-2.55-7.95c.527 0 .976.45.976.975s-.45.975-.975.975h-3.6c-.525 0-.976-.45-.976-.975s.45-.975.975-.975z"/></svg>
